flaticon/emoticons/baby-2.svg

<svg xmlns="http://www.w3.org/2000/svg" width="32" height="32" viewBox="0 0 24 24">
    <path d="M 12.796875 14.957031 C 12.636719 15.054688 12.484375 15.160156 12.332031 15.269531 C 11.78125 15.054688 11.191406 14.996094 10.605469 15.113281 C 9.367188 15.371094 8.382812 16.417969 8.210938 17.667969 C 8.085938 18.5625 8.355469 19.460938 8.949219 20.128906 C 9.53125 20.78125 10.359375 21.152344 11.230469 21.152344 C 11.253906 21.152344 11.273438 21.152344 11.296875 21.152344 C 12.472656 21.125 13.550781 20.378906 14.039062 19.246094 C 14.265625 18.722656 14.324219 18.171875 14.230469 17.609375 C 14.375 17.496094 14.511719 17.378906 14.640625 17.246094 C 15.160156 16.699219 15.1875 15.902344 14.707031 15.304688 C 14.226562 14.707031 13.441406 14.5625 12.796875 14.957031 Z M 13.292969 18.921875 C 12.929688 19.765625 12.140625 20.320312 11.28125 20.339844 C 10.617188 20.359375 9.996094 20.078125 9.558594 19.589844 C 9.121094 19.097656 8.921875 18.441406 9.015625 17.78125 C 9.140625 16.867188 9.863281 16.097656 10.765625 15.914062 C 10.921875 15.878906 11.074219 15.863281 11.226562 15.863281 C 11.332031 15.863281 11.4375 15.871094 11.542969 15.886719 C 11.121094 16.246094 10.75 16.601562 10.480469 16.875 C 10.167969 17.191406 10.089844 17.675781 10.289062 18.078125 L 10.601562 18.703125 C 10.730469 18.957031 10.960938 19.152344 11.238281 19.234375 C 11.515625 19.316406 11.816406 19.28125 12.066406 19.136719 C 12.585938 18.835938 13.054688 18.539062 13.460938 18.246094 C 13.445312 18.476562 13.390625 18.699219 13.292969 18.921875 Z M 14.050781 16.683594 C 13.675781 17.078125 13.148438 17.351562 12.269531 17.808594 C 11.992188 17.957031 11.671875 18.121094 11.316406 18.3125 L 11.019531 17.714844 C 11.007812 17.695312 11.011719 17.675781 11.007812 17.660156 C 11.269531 17.347656 12.207031 16.273438 13.21875 15.652344 C 13.578125 15.433594 13.902344 15.605469 14.074219 15.816406 C 14.246094 16.027344 14.339844 16.382812 14.050781 16.683594 Z M 14.050781 16.683594"/>
    <path d="M 12 0 C 6.054688 0 1.21875 4.835938 1.21875 10.78125 L 1.21875 15.246094 C 1.21875 15.25 1.21875 15.25 1.21875 15.25 C 1.21875 15.25 1.21875 15.253906 1.21875 15.253906 L 1.21875 20.746094 C 1.21875 21.867188 2.132812 22.78125 3.253906 22.78125 L 5.917969 22.78125 C 5.9375 22.789062 5.957031 22.796875 5.976562 22.804688 C 7.402344 23.476562 9.121094 23.878906 11.078125 23.976562 C 11.121094 23.976562 11.164062 23.980469 11.210938 23.980469 C 11.46875 23.992188 11.730469 24 12 24 C 12.269531 24 12.53125 23.992188 12.792969 23.980469 C 12.835938 23.980469 12.878906 23.976562 12.921875 23.976562 C 14.878906 23.878906 16.597656 23.476562 18.023438 22.804688 C 18.042969 22.796875 18.0625 22.789062 18.082031 22.777344 L 20.746094 22.777344 C 21.867188 22.777344 22.78125 21.867188 22.78125 20.746094 L 22.78125 10.78125 C 22.78125 4.835938 17.945312 0 12 0 Z M 17.894531 21.964844 L 17.8125 22.007812 C 16.660156 22.566406 15.289062 22.929688 13.777344 23.089844 C 13.667969 23.101562 13.558594 23.113281 13.445312 23.125 C 13.285156 23.136719 13.125 23.148438 12.960938 23.15625 C 12.648438 23.175781 12.328125 23.1875 12 23.1875 C 11.671875 23.1875 11.351562 23.175781 11.039062 23.15625 C 10.875 23.148438 10.714844 23.136719 10.554688 23.121094 C 10.441406 23.113281 10.332031 23.101562 10.222656 23.089844 C 8.710938 22.929688 7.339844 22.566406 6.1875 22.007812 L 6.105469 21.964844 L 6.066406 21.964844 C 3.476562 20.65625 2.035156 18.34375 2.035156 15.253906 C 2.035156 15.253906 2.035156 15.25 2.035156 15.25 C 2.035156 15.25 2.035156 15.25 2.035156 15.246094 C 2.039062 10.019531 6.425781 5.550781 11.796875 5.289062 L 12.183594 5.289062 C 17.578125 5.550781 21.964844 10.023438 21.964844 15.253906 C 21.964844 18.34375 20.523438 20.65625 17.933594 21.964844 Z M 3.253906 21.964844 C 2.582031 21.964844 2.035156 21.417969 2.035156 20.746094 L 2.035156 19.027344 C 2.597656 20.195312 3.441406 21.1875 4.535156 21.964844 Z M 21.964844 20.746094 C 21.964844 21.417969 21.417969 21.964844 20.746094 21.964844 L 19.464844 21.964844 C 20.558594 21.1875 21.402344 20.195312 21.964844 19.027344 Z M 12.203125 4.472656 L 11.777344 4.476562 C 7.390625 4.691406 3.625 7.492188 2.035156 11.28125 L 2.035156 10.78125 C 2.035156 5.285156 6.503906 0.8125 12 0.8125 C 17.496094 0.8125 21.964844 5.285156 21.964844 10.78125 L 21.964844 11.265625 C 20.371094 7.484375 16.601562 4.6875 12.203125 4.472656 Z M 12.203125 4.472656"/>
    <path d="M10.167969 11.59375C10.167969 10.136719 8.984375 8.949219 7.527344 8.949219 6.066406 8.949219 4.882812 10.136719 4.882812 11.59375 4.882812 13.050781 6.066406 14.238281 7.527344 14.238281 8.984375 14.238281 10.167969 13.050781 10.167969 11.59375zM5.695312 11.59375C5.695312 10.585938 6.515625 9.761719 7.527344 9.761719 7.964844 9.761719 8.363281 9.925781 8.679688 10.183594 8.632812 10.179688 8.589844 10.167969 8.542969 10.167969 7.757812 10.167969 7.117188 10.808594 7.117188 11.59375 7.117188 12.378906 7.757812 13.015625 8.542969 13.015625 8.589844 13.015625 8.632812 13.007812 8.679688 13.003906 8.363281 13.261719 7.964844 13.421875 7.527344 13.421875 6.515625 13.421875 5.695312 12.601562 5.695312 11.59375zM16.066406 8.949219C14.609375 8.949219 13.421875 10.136719 13.421875 11.59375 13.421875 13.050781 14.609375 14.238281 16.066406 14.238281 17.527344 14.238281 18.710938 13.050781 18.710938 11.59375 18.710938 10.136719 17.527344 8.949219 16.066406 8.949219zM14.238281 11.59375C14.238281 10.585938 15.058594 9.761719 16.066406 9.761719 16.507812 9.761719 16.90625 9.925781 17.21875 10.183594 17.175781 10.179688 17.132812 10.167969 17.085938 10.167969 16.296875 10.167969 15.660156 10.808594 15.660156 11.59375 15.660156 12.378906 16.296875 13.015625 17.085938 13.015625 17.132812 13.015625 17.175781 13.007812 17.21875 13.003906 16.90625 13.261719 16.507812 13.421875 16.066406 13.421875 15.058594 13.421875 14.238281 12.601562 14.238281 11.59375zM14.238281 11.59375"/>
</svg>

<svg xmlns="http://www.w3.org/2000/svg" width="32" height="32" viewBox="0 0 24 24">
    <path d="M12.797 14.957c-.16.098-.313.203-.465.313a3.063 3.063 0 0 0-1.727-.157c-1.238.258-2.222 1.305-2.394 2.555a3.061 3.061 0 0 0 .738 2.46 3.054 3.054 0 0 0 2.281 1.024h.067c1.176-.027 2.254-.773 2.742-1.906a2.866 2.866 0 0 0 .191-1.637 4.01 4.01 0 0 0 .41-.363c.52-.547.547-1.344.067-1.941-.48-.598-1.266-.742-1.91-.348zm.496 3.965c-.363.844-1.152 1.398-2.012 1.418a2.22 2.22 0 0 1-1.722-.75 2.238 2.238 0 0 1-.543-1.809 2.246 2.246 0 0 1 2.527-1.894c-.422.36-.793.715-1.063.988-.312.316-.39.8-.19 1.203l.312.625a1.052 1.052 0 0 0 1.464.434c.52-.301.989-.598 1.395-.89-.016.23-.07.452-.168.675zm.758-2.238c-.375.394-.903.668-1.781 1.125-.278.148-.598.312-.954.503l-.296-.597c-.012-.02-.008-.04-.012-.055.262-.312 1.199-1.387 2.21-2.008.36-.218.684-.047.856.164.172.211.266.567-.023.868zm0 0"/>
    <path d="M12 0C6.055 0 1.219 4.836 1.219 10.781v9.965c0 1.121.914 2.035 2.035 2.035h2.664l.059.024c1.425.672 3.144 1.074 5.101 1.172.043 0 .086.003.133.003.258.012.52.02.789.02.27 0 .531-.008.793-.02l.129-.003c1.957-.098 3.676-.5 5.101-1.172.02-.008.04-.016.059-.028h2.664c1.121 0 2.035-.91 2.035-2.03V10.78C22.781 4.836 17.945 0 12 0zm5.895 21.965l-.082.043c-1.153.558-2.524.922-4.036 1.082l-.332.035c-.16.012-.32.023-.484.031a15.386 15.386 0 0 1-2.406-.035c-.114-.008-.223-.02-.332-.031-1.512-.16-2.883-.524-4.036-1.082l-.082-.043h-.039c-2.59-1.309-4.03-3.621-4.03-6.711v-.004-.004c.003-5.226 4.39-9.695 9.76-9.957h.388c5.394.262 9.78 4.734 9.78 9.965 0 3.09-1.44 5.402-4.03 6.71zm-14.641 0a1.22 1.22 0 0 1-1.219-1.219v-1.719a7.663 7.663 0 0 0 2.5 2.938zm18.71-1.219a1.22 1.22 0 0 1-1.218 1.219h-1.281a7.663 7.663 0 0 0 2.5-2.938zm-9.76-16.273l-.427.004c-4.386.214-8.152 3.015-9.742 6.804v-.5C2.035 5.285 6.504.812 12 .812c5.496 0 9.965 4.473 9.965 9.97v.484c-1.594-3.782-5.363-6.579-9.762-6.793zm0 0"/>
    <path d="M10.168 11.594a2.646 2.646 0 0 0-2.64-2.645 2.647 2.647 0 0 0-2.645 2.645 2.647 2.647 0 0 0 2.644 2.644 2.646 2.646 0 0 0 2.641-2.644zm-4.473 0c0-1.008.82-1.832 1.832-1.832.438 0 .836.164 1.153.422-.047-.004-.09-.016-.137-.016-.785 0-1.426.64-1.426 1.426 0 .785.64 1.422 1.426 1.422.047 0 .09-.008.137-.012a1.819 1.819 0 0 1-1.153.418 1.831 1.831 0 0 1-1.832-1.828zm0 0M16.066 8.95a2.649 2.649 0 0 0-2.644 2.644 2.649 2.649 0 0 0 2.644 2.644 2.647 2.647 0 0 0 2.645-2.644 2.647 2.647 0 0 0-2.645-2.645zm-1.828 2.644c0-1.008.82-1.832 1.828-1.832.442 0 .84.164 1.153.422-.043-.004-.086-.016-.133-.016a1.423 1.423 0 1 0 0 2.848c.047 0 .09-.008.133-.012-.313.258-.711.418-1.153.418a1.83 1.83 0 0 1-1.828-1.828zm0 0"/>
</svg>
